X: 67
T: Cotillon
%R: jig
B: Stewart "A Select Collection of Airs, Jigs, Marches and Reels", ca.1784, p.31 #67
F: http://imslp.org/wiki/A_Select_Collection_of_Airs,_Jigs,_Marches_and_Reels_%28Various%29
Z: 2017 John Chambers <jc:trillian.mit.edu>
M: 6/8
L: 1/8
K: G
!segno!G2G- |\
GcB Bed | d3 gfe | dcB Adc | BAG G2G- |\
GcB Bed | d3 gfe | dcB AGF | !fine!HG3 :|
A2A |\
ABc BAG | G3 B2B | Bcd cBA | A3 d2g |\
fed d2g | fed d2d- | dBA GFE | D3 !segno!|]
g2b |\
agf ed^c | d3 =c2e | dcB Adc | BAG g2(b |\
a)gf ed^c | d3 gfe | agf ed^c | d3 !segno!|]
B2c |\
d2d def | g3 gfe | dcB Adc | BAG B2c |\
d2d def | g3 bag | fed Ad^c | d3 !segno!|]
